X: 11834
T: Els'
R: barndance
M: 4/4
K: Gmajor
BA GA B2 B2|cB AB c2 c2|BA GA B2 B2|GA BG A2G2:|
d2 dc AB cB|AB (3cBA AB (3cBA|d2 dc AB cB|GA BG A2 G2|
d2 dc AB cB|AD (3FED AD (3FED|d2 dc AB cB|GA BG A2 G2|

